X:106
T:New Sailors Hornpipe, The
S:John Moore's Book 2
Z:Transcribed by Steve Mansfield 05/2021
%%VWML: Moore2-4494-p83-0
F:http://www.vwml.org/record/Moore2/4494/p83
M:C
L:1/8
K:Bb
BGFE DB,DF | GEGB AFAc | dBec fdcB | A2c2 c2 BA | 
BGFE DB,DF | GEGB AFAc | dBec dBcA | B2B2 B2z2 :|
|: bfdB Bdfb | fdcB ABcd | edcB ABcd | c2F2 F2z2 | 
BFFG _AGFE | DEFG _AGFE | Fffe dcBA | B2B2 B2z2 :| 

